!!!id: BC070
!!!page: 88-89
!!!COM: (Folklore)
!!!LYR: Anonyme
!!!PTL@@FR: Les 100 plus belles chansons
!!!OTL@@FR: Envoyons d'l'avant, nos gens!
!!!PUB: La Bonne Chanson, inc.
!!!YEM: On ne peut reproduire, enregistrer ou diffuser en tout ou en partie le présent ouvrage, sous quelque procédé que ce soit, électronique, mécanique, photographique, sonore, magnétique ou autre, sans avoir obtenu au préalable l'autorisation écrite de l'éditrice.
!!!PDT: 2011
!!!SMA:2012 Bibliothèque nationale du Québec; Biblothèque nationale du Canada
!!!AGN-Laforte: Chanson strophique (avec refrain), 9:4(7/8), avec répétition à cheval des deux derniers vers; R:1(7+5)
!!!AGN-type: Chanson de voyageurs
!!!AGN-rime: suivies (aabb)
!!!LYR-elision: Final "e" (d'l'avant = de l'avant, qu'ça = que ça, n'voyent = ne voyent, s'mettre = se mettre, Ell's = Elles; d'leurs = de leurs; dir' = dire); other (qu'on = quand on, V'là = Voilà).
!!!LYR-variant: "soye"/"soyent" = soit/soient; "compagnées" = compagnes; "mouiller" = drink
!!!OCO: Dédié à CHARLES MARCHAND, (1891-1930); célèbre interprète du Folklore canadien.
!!!RNB: 2 voices notated in pick-up measure (quarter rest for v:1 and eighth rest for v:2); italics in original; added elision to accomodate melody in pline:10, "nous" = "n'voy[ent]" and pline:21, "le joli" = "l'jo-li"; added subdivision (shown with dotted slur) in pline:17 to accomodate text ("par-ler d'leurs")
**kern	**text	**text	**text	**text	**text	**text	**text	**text	**text
*clefG2	*	*	*	*	*	*	*	*	*
*k[]	*	*	*	*	*	*	*	*	*
*a:	*	*	*	*	*	*	*	*	*
!!LO:TX:a:B:t=Allegro
*M2/4	*	*	*	*	*	*	*	*	*
*	*vv:1	*vv:2	*vv:3	*vv:4	*vv:5	*vv:6	*vv:7	*vv:8	*vv:9
*	*pline:1	*pline:3r	*pline:6r	*pline:8r	*pline:10r	*pline:12r	*pline:14r	*pline:16r	*pline:18r
=1	=1	=1	=1	=1	=1	=1	=1	=1	=1
8r	.	.	.	.	.	.	.	.	.
*	*	*	*italic	*	*italic	*	*	*	*
{{8e\	.	Pour	Mais	Ah!	Mais	Di-	Ell's	Et	Ell's
*	*	*	*	*italic	*	*	*	*	*
8a	Quand	al-	qu'on	Mais	qu'nos	-manche	vont	au	vont
*	*	*	*Xitalic	*	*Xitalic	*italic	*	*	*
8b/	on	-ler	ar-	qu'ça	a-	au	nous	mi-	nous
*	*	*	*	*	*	*Xitalic	*	*	*
=2	=2	=2	=2	=2	=2	=2	=2	=2	=2
8cc	pâ-	voir	-riv[e]	soy-	-mis	soir	dir[e]	-lieu	dir'
*	*	*	*	*Xitalic	*italic	*	*	*	*italic
8cc	-re	tous	en	e	n'voy[ent]	à	mais	de	mais
*	*	*	*	*italic	*Xitalic	*	*	*	*Xitalic
8dd	des	nos	Ca-	tout	ar-	la	en	la	en
8cc	chan-	pa-	-na-	mouil-	-ri-	veil-	en-	veil-	par-
=3	=3	=3	=3	=3	=3	=3	=3	=3	=3
8b}	-quiers,	-rents,	-da,	-lé,	-ver,	-lée,	-trant:	-lée,	-tant:
*	*rp:e	*rp:ɑ̃	*rp:ɑ	*rp:e	*rp:e	*rp:e	*rp:ɑ̃	*rp:e	*rp:ɑ̃
*	*rf:je	*rf:ʁɑ̃	*rf:da	*rf:je	*rf:ve	*rf:je	*rf:ʁɑ̃	*rf:je	*rf:tɑ̃
*	*rs:a1-	*rs:b1-	*rs:c1-	*rs:d1-	*rs:d3-	*rs:b1-	*rs:b1-	*rs:d1-	*rs:b2-
*	*	*	*	*Xitalic	*	*	*	*	*
16r	.	.	.	.	.	.	.	.	.
*	*pline:2	*pline:4r	*pline:7r	*pline:9r	*pline:11r	*pline:13r	*pline:15r	*pline:17r	*pline:19r
{16b	Mes	Mes	I(l)	Vous	I(ls)	Nous	V'là	Ell's	As
8a	chers	chers	va	al-	vont	i-	mon	vont	tu
8b/	a-	a-	fal-	-lez	s'mett(r[e)]	-rons	a-	nous	fré-
!!LO:PB:g=original
=4	=4	=4	=4	=4	=4	=4	=4	=4	=4
8cc	-mis,	-mis,	-loir	voir	à	voir	-mant!	par-	-quen-
*	*	*	*italic	*	*	*	*	*	*
!!LO:S:dot
(16cc	tous	le	y	qu'ça	rir[e],	nos	J'ai	-ler	-té
16cc)	.	.	.	.	.	.	.	d'leurs	.
*	*	*	*	*	*	*italic	*	*	*
8dd	le	cœur	mouil-	va	à	com-	l'coeur	ca-	des
8cc	cœur	con-	-ler	mar-	chan-	-pa-	con-	-va-	a-
=5	=5	=5	=5	=5	=5	=5	=5	=5	=5
8b}	gai,	-tent;	ça.	-cher.	-ter,	-gnées.	-tent.	-liers.	-mants?
*	*rp:e	*rp:ɑ̃	*rp:ɑ	*rp:e	*rp:e	*rp:e	*rp:ɑ̃	*rp:e	*rp:ɑ̃
*	*rf:ge	*rf:tɑ̃	*rf:sa	*rf:ʃe	*rf:te	*rf:ɲe	*rf:tɑ̃	*rf:je	*rf:mɑ̃
*	*rs:a2-	*rs:b2-	*rs:c2-	*rs:d2-	*rs:d4-	*rs:d5-	*rs:b2-	*rs:d1-	*rs:b3-
*	*	*	*Xitalic	*	*	*Xitalic	*	*	*
16r	.	.	.	.	.	.	.	.	.
*	*	*	*	*italic	*	*	*	*	*
*	*pline:3	*pline:6	*pline:8	*pline:10	*pline:12	*pline:14	*pline:16	*pline:18	*pline:20
{16b	Pour	Mais	Ah!	Mais	Di-	Ell's	Et	Ell's	Qui
*	*	*	*italic	*	*	*	*	*	*
8b	al-	qu'on	Mais	qu'nos	-manch[e]	vont	au	vont	a
*	*	*	*	*Xitalic	*italic	*	*	*	*
8b	-ler	ar-	qu'ça	a-	au	nous	mi-	nous	com-
*	*	*	*	*	*Xitalic	*	*	*	*
=6	=6	=6	=6	=6	=6	=6	=6	=6	=6
8cc#	voir	-rive	soy-	-mis	soir	dir[e]	-lieu	dir'	-po-
*	*	*	*Xitalic	*	*	*	*	*	*
*	*	*	*	*italic	*	*italic	*	*italic	*
8a	tous	en	-e	n'voy[ent]	à	mais	de	mais	-sé
*	*	*	*	*Xitalic	*	*Xitalic	*	*Xitalic	*
*	*	*	*italic	*	*	*	*	*	*
8g#	nos	Ca-	tout	ar-	la	en	la	en	la
8b	pa-	-na-	mouil-	-ri-	veil-	en-	veil-	par-	chan-
!!LO:PB:g=original
=7	=7	=7	=7	=7	=7	=7	=7	=7	=7
8.a}	-rents,	-da,	-lé,	-ver.	-lée.	-trant,	-lée,	-tant:	-son.
*	*rp:ɑ̃	*rp:ɑ	*rp:e	*rp:e	*rp:e	*rp:ɑ̃	*rp:e	*rp:ɑ̃	*rp:ɔ̃
*	*rf:ʁɑ̃	*rf:dɑ	*rf:je	*rf:ve	*rf:je	*rf:ʁɑ̃	*rf:je	*rf:tɑ̃	*rf:sɔ̃
*	*rs:b1-	*rs:c1-	*rs:d1-	*rs:d3-	*rs:d1-	*rs:b1-	*rs:d1-	*rs:b2-	*rs:e1-
*	*	*	*Xitalic	*	*	*	*	*	*
*	*pline:4	*pline:7	*pline:9	*pline:11	*pline:13	*pline:15	*pline:17	*pline:19	*pline:21
{16a	Mes	I(l)	Vous	I(ls)	Nous	V'là	Ell's	As-	C'est
*	*	*	*	*	*	*	*	*	*italic
8a	chers	va	al-	vont	i-	mon	vont	-tu	Jos
8a	a-	fal-	-lez	s'mett(r[e)]	-rons	a-	nous	fré-	Blan-
=8	=8	=8	=8	=8	=8	=8	=8	=8	=8
8a	-mis,	-loir	voir	à	voir	-mant!	par-	-quen-	-chet
*	*	*	*	*	*	*	*	*	*Xitalic
!!LO:S:dot
(16b/	le	y	qu'ça	rir[e],	nos	J'ai	-ler	-té	l'jo-
16b/)	.	.	.	.	.	.	d'leurs	.	.
*	*	*	*	*	*italic	*	*	*	*
8a	cœur	mouil-	va	à	com-	l'coeur	ca-	des	-li
8gnZ	con-	-ler	mar-	chan-	-pa-	con-	-va-	a-	gar-
=9	=9	=9	=9	=9	=9	=9	=9	=9	=9
4.e}}	-tent.	ça.	-cher.	-ter.	-gnées.	-tent.	-liers.	-mants?	-çon.
*	*rp:ɑ̃	*rp:ɑ	*rp:e	*rp:te	*rp:e	*rp:ɑ̃	*rp:e	*rp:ɑ̃	*rp:ɔ̃
*	*rf:tɑ̃	*rf:sɑ	*rf:ʃe	*rf:e	*rf:ɲe	*rf:tɑ̃	*rf:je	*rf:mɑ̃	*rf:sɔ̃
*	*rs:b2-	*rs:c2-	*rs:d2-	*rs:d4-	*rs:d5-	*rs:b2-	*rs:d1-	*rs:b3-	*rs:e1-
8r	.	.	.	.	.	.	.	.	.
=10||	=10||	=10||	=10||	=10||	=10||	=10||	=10||	=10||	=10||
*>Refrain	*>Refrain	*>Refrain	*>Refrain	*>Refrain	*>Refrain	*>Refrain	*>Refrain	*>Refrain	*>Refrain
*	*pline:R1	*	*	*	*	*	*	*	*
!!LO:TX:a:B:t=REFRAIN
{{8a	En-	.	.	.	.	.	.	.	.
8cc	-voy-	.	.	.	.	.	.	.	.
8b	-ons	.	.	.	.	.	.	.	.
8cc	d'l'a-	.	.	.	.	.	.	.	.
!!LO:PB:g=original
=11	=11	=11	=11	=11	=11	=11	=11	=11	=11
8a	-vant,	.	.	.	.	.	.	.	.
8g	nos	.	.	.	.	.	.	.	.
4e}	gens!	.	.	.	.	.	.	.	.
=12	=12	=12	=12	=12	=12	=12	=12	=12	=12
*	*bis	*	*	*	*	*	*	*	*
{8a	En-	.	.	.	.	.	.	.	.
8cc	-voy-	.	.	.	.	.	.	.	.
8b	-ons	.	.	.	.	.	.	.	.
8cc	d'l'a-	.	.	.	.	.	.	.	.
=13	=13	=13	=13	=13	=13	=13	=13	=13	=13
4a	-vant!	.	.	.	.	.	.	.	.
*	*rp:ɑ̃	*	*	*	*	*	*	*	*
*	*rf:vɑ̃	*	*	*	*	*	*	*	*
*	*rs:b4-	*	*	*	*	*	*	*	*
*	*Xbis	*	*	*	*	*	*	*	*
4r}}	.	.	.	.	.	.	.	.	.
=14	=14	=14	=14	=14	=14	=14	=14	=14	=14
*	*pline:R1r	*	*	*	*	*	*	*	*
{{8a	En-	.	.	.	.	.	.	.	.
8cc	-voy-	.	.	.	.	.	.	.	.
8b	-ons	.	.	.	.	.	.	.	.
8cc	d'l'a-	.	.	.	.	.	.	.	.
!!LO:PB:g=original
=15	=15	=15	=15	=15	=15	=15	=15	=15	=15
8a	-vant,	.	.	.	.	.	.	.	.
8g	nos	.	.	.	.	.	.	.	.
4e}	gens!	.	.	.	.	.	.	.	.
=16	=16	=16	=16	=16	=16	=16	=16	=16	=16
*	*bis	*	*	*	*	*	*	*	*
{8a	En-	.	.	.	.	.	.	.	.
8cc	-voy-	.	.	.	.	.	.	.	.
8b	-ons	.	.	.	.	.	.	.	.
8cc	d'l'a-	.	.	.	.	.	.	.	.
=17	=17	=17	=17	=17	=17	=17	=17	=17	=17
4a	-vant!	.	.	.	.	.	.	.	.
*	*rp:ɑ̃	*	*	*	*	*	*	*	*
*	*rf:vɑ̃	*	*	*	*	*	*	*	*
*	*rs:b4-	*	*	*	*	*	*	*	*
*	*Xbis	*	*	*	*	*	*	*	*
4r}}	.	.	.	.	.	.	.	.	.
==	==	==	==	==	==	==	==	==	==
*-	*-	*-	*-	*-	*-	*-	*-	*-	*-
!!!RDF**kern: Z = editorial accidental, parentheses
!!!EED: Isaac Howie
!!!EEV: 2025/07/15
!!!EED: Ève Poudrier
!!!EEV: 2025/08/11
